static/characters/himawari/back-sitting-alt.svg

<svg xmlns="http://www.w3.org/2000/svg" width="160" height="182"><path d="M97.78 68.44c1.03.15 6.97 28.44 7.1 30.37.12 1.94-16.66 7.93-17.54 7.22-.87-.71-6.81-31.62-6.03-33.5.78-1.87 15.44-4.25 16.47-4.09Z"/><path fill="gold" d="m101.42 85 1.22 5.16c-2.04-.68-15.72 8.22-16.4 9.11l-.84-4.2S96.46 84.99 101.42 85Z"/><path fill="silver" d="M99.36 76c-3.39-.84-15.96 8.24-15.96 8.24l2.07 11.07c1.16-1.05 11.61-9.01 16.02-10.11 0 0-2.18-9.2-2.13-9.2Z"/><path fill="orange" d="M97.2 69.27c.81.56 2.18 7 2.18 7-4.72 1.18-15.32 7.19-15.85 8.66 0 0-1.99-10.79-1.49-12.04s14.35-4.19 15.16-3.62Z"/><path fill="#3cb371" d="m63.17 21.08 5.08-17.2s11.33 12.87 11.42 12.79c.08-.09 16.16-11.09 16.25-11.17.08-.08-.67 11.83-.67 11.83s13.67-2.25 13.75-2.25c.08 0-3.83 8.67-3.83 8.67s13.25 1.42 13.16 1.42c-.08 0-6.33 9-6.33 9s15.12 3.91 15.12 3.83c0-.08-10.7 10.58-10.7 10.58l9.83 6.3L116 62.75s4.58 16.5 4.58 16.42c0-.09-15.16-8-15.16-8l-4.5 17.66-8.04-11.95-7.26 13.74-7.87-13.12-13.67 12.58-2.22-16.35-19.11 4.19L54 61.12l-16.25-5.24s13.5-10.3 13.75-10.38c.25-.08-14.12-9.62-14.12-9.62s16.37-1.42 16.62-1.5c.25-.09-5.38-16.38-5.38-16.63s14.55 3.33 14.55 3.33ZM38.25 35.5"/><path fill="none" stroke="green" d="m92.25 67.12 6.94 6.5 2.62-9.68L111.5 68l-3.88-9.25 11-2.81-11.56-8.5s9.5-7.25 9.56-7.38c.07-.12-11.62-1.87-11.5-2.5.13-.62 4.38-9.37 4.38-9.37s-12.81-.38-12.75-.38c.06 0 5.75-8.56 5.75-8.56S88.06 22.38 88 22.38c-.06 0 2.38-8.82 2.38-8.82l-11.32 8.38-8.75-7.63L69 26.56l-13.06-1.12 4.18 11.25L51 40s7.06 8.38 7.25 8.38c.19 0-8.94 6.68-8.94 6.68l9.81 4.25S53.81 71 53.88 70.94c.06-.06 11-2.06 11-2.06l1.68 11.93 12.25-10.06 7.44 11.44 6-15.07Z"/><path fill="#6b8e23" d="M61.08 112.62C53 101.96 71.95 51.6 74.23 48.59c2.27-3.01 11.72-2.41 11.09.55-.64 2.95-11.86 37.78-8.2 48.36 3.67 10.58 31.46 7.96 33.13 9.38 1.67 1.41 1.54 10.83.13 12-1.42 1.16-41.21 4.41-49.3-6.26Z"/><path fill="green" d="M71.38 84.94c6.06 11.31 29.65 5.42 31.47 3.81 1.83-1.61 2.74 6.91 1.92 7.87-.83.96-36.83 7.88-33.39-11.68Z"/></svg>

<?xml version="1.0" encoding="UTF-8" standalone="no"?>
<!DOCTYPE svg PUBLIC "-//W3C//DTD SVG 20010904//EN"
              "http://www.w3.org/TR/2001/REC-SVG-20010904/DTD/svg10.dtd">

<svg xmlns="http://www.w3.org/2000/svg"
     width="160" height="182">
  <path fill="black"              
        d="M 97.78,68.44
           C 98.81,68.59 104.75,96.88 104.88,98.81
             105.00,100.75 88.22,106.74 87.34,106.03
             86.47,105.32 80.53,74.41 81.31,72.53
             82.09,70.66 96.75,68.28 97.78,68.44 Z" />
  <path fill="gold"
        d="M 101.42,85.00
           C 101.42,85.00 102.64,90.16 102.64,90.16
             100.60,89.48 86.92,98.38 86.24,99.27
             86.24,99.27 85.40,95.07 85.40,95.07
             85.40,95.07 96.46,84.99 101.42,85.00 Z" />
  <path fill="silver"
        d="M 99.36,76.00
           C 95.97,75.16 83.40,84.24 83.40,84.24
             83.40,84.24 85.47,95.31 85.47,95.31
             86.63,94.26 97.08,86.30 101.49,85.20
             101.49,85.20 99.31,76.00 99.36,76.00 Z" />
  <path fill="orange"
        d="M 97.20,69.27
           C 98.01,69.83 99.38,76.27 99.38,76.27
             94.66,77.45 84.06,83.46 83.53,84.93
             83.53,84.93 81.54,74.14 82.04,72.89
             82.54,71.64 96.39,68.70 97.20,69.27 Z" />
  <path fill="mediumseagreen"
        d="M 63.17,21.08
           C 63.17,21.08 68.25,3.88 68.25,3.88
             68.25,3.88 79.58,16.75 79.67,16.67
             79.75,16.58 95.83,5.58 95.92,5.50
             96.00,5.42 95.25,17.33 95.25,17.33
             95.25,17.33 108.92,15.08 109.00,15.08
             109.08,15.08 105.17,23.75 105.17,23.75
             105.17,23.75 118.42,25.17 118.33,25.17
             118.25,25.17 112.00,34.17 112.00,34.17
             112.00,34.17 127.12,38.08 127.12,38.00
             127.12,37.92 116.42,48.58 116.42,48.58
             116.42,48.58 126.25,54.88 126.25,54.88
             126.25,54.88 116.00,62.75 116.00,62.75
             116.00,62.75 120.58,79.25 120.58,79.17
             120.58,79.08 105.42,71.17 105.42,71.17
             105.42,71.17 100.92,88.83 100.92,88.83
             100.92,88.83 92.88,76.88 92.88,76.88
             92.88,76.88 85.62,90.62 85.62,90.62
             85.62,90.62 77.75,77.50 77.75,77.50
             77.75,77.50 64.08,90.08 64.08,90.08
             64.08,90.08 61.86,73.73 61.86,73.73
             61.86,73.73 42.75,77.92 42.75,77.92
             42.75,77.92 54.00,61.12 54.00,61.12
             54.00,61.12 37.75,55.88 37.75,55.88
             37.75,55.88 51.25,45.58 51.50,45.50
             51.75,45.42 37.38,35.88 37.38,35.88
             37.38,35.88 53.75,34.46 54.00,34.38
             54.25,34.29 48.62,18.00 48.62,17.75
             48.62,17.50 63.17,21.08 63.17,21.08 Z
           M 38.25,35.50M 38.25,35.50" />
  <path fill="none" stroke="green" stroke-width="1"
        d="M 92.25,67.12
           C 92.25,67.12 99.19,73.62 99.19,73.62
             99.19,73.62 101.81,63.94 101.81,63.94
             101.81,63.94 111.50,68.00 111.50,68.00
             111.50,68.00 107.62,58.75 107.62,58.75
             107.62,58.75 118.62,55.94 118.62,55.94
             118.62,55.94 107.06,47.44 107.06,47.44
             107.06,47.44 116.56,40.19 116.62,40.06
             116.69,39.94 105.00,38.19 105.12,37.56
             105.25,36.94 109.50,28.19 109.50,28.19
             109.50,28.19 96.69,27.81 96.75,27.81
             96.81,27.81 102.50,19.25 102.50,19.25
             102.50,19.25 88.06,22.38 88.00,22.38
             87.94,22.38 90.38,13.56 90.38,13.56
             90.38,13.56 79.06,21.94 79.06,21.94
             79.06,21.94 70.31,14.31 70.31,14.31
             70.31,14.31 69.00,26.56 69.00,26.56
             69.00,26.56 55.94,25.44 55.94,25.44
             55.94,25.44 60.12,36.69 60.12,36.69
             60.12,36.69 51.00,40.00 51.00,40.00
             51.00,40.00 58.06,48.38 58.25,48.38
             58.44,48.38 49.31,55.06 49.31,55.06
             49.31,55.06 59.12,59.31 59.12,59.31
             59.12,59.31 53.81,71.00 53.88,70.94
             53.94,70.88 64.88,68.88 64.88,68.88
             64.88,68.88 66.56,80.81 66.56,80.81
             66.56,80.81 78.81,70.75 78.81,70.75
             78.81,70.75 86.25,82.19 86.25,82.19
             86.25,82.19 92.25,67.12 92.25,67.12 Z" />
  <path fill="olivedrab"
        d="M 61.08,112.62
           C 53.00,101.96 71.95,51.60 74.23,48.59
             76.50,45.58 85.95,46.18 85.32,49.14
             84.68,52.09 73.46,86.92 77.12,97.50
             80.79,108.08 108.58,105.46 110.25,106.88
             111.92,108.29 111.79,117.71 110.38,118.88
             108.96,120.04 69.17,123.29 61.08,112.62 Z" />
 <path fill="green"
        d="M 71.38,84.94
           C 77.44,96.25 101.03,90.36 102.85,88.75
             104.68,87.14 105.59,95.66 104.77,96.62
             103.94,97.58 67.94,104.50 71.38,84.94 Z" />
</svg>
